packages/kaspersky-hexa-ui-icons/src/iconsSVGs/32/NetworkHardwareDoneSafeCheck.svg

<svg xmlns="http://www.w3.org/2000/svg" width="32" height="32" fill="none" viewBox="0 0 32 32"><path fill="#000" fill-rule="evenodd" d="M10 2C7.7909 2 6 3.7909 6 6v20c0 2.2091 1.7909 4 4 4h12c1.7926 0 3.3098-1.1792 3.8182-2.8042a3.01 3.01 0 0 1-2.3224.1319A1.995 1.995 0 0 1 22 28H10c-1.1046 0-2-.8954-2-2V6c0-1.1046.8954-2 2-2h12c1.1046 0 2 .8954 2 2v13.7638q.0618.0555.1213.1149l.3787.3787 1.5-1.5V6c0-2.2091-1.7909-4-4-4zm2 6c-.5523 0-1 .4477-1 1s.4477 1 1 1h8c.5523 0 1-.4477 1-1s-.4477-1-1-1zm0 4c-.5523 0-1 .4477-1 1s.4477 1 1 1h8c.5523 0 1-.4477 1-1s-.4477-1-1-1zm0 6c.5523 0 1-.4477 1-1s-.4477-1-1-1-1 .4477-1 1 .4477 1 1 1m3 0c.5523 0 1-.4477 1-1s-.4477-1-1-1-1 .4477-1 1 .4477 1 1 1m7.7071 3.2929L24.5 23.0858l3.7929-3.7929c.3905-.3905 1.0237-.3905 1.4142 0s.3905 1.0237 0 1.4142l-4.5 4.5c-.3272.3272-.8247.3803-1.2071.1592a1 1 0 0 1-.2071-.1592l-2.5-2.5c-.3905-.3905-.3905-1.0237 0-1.4142s1.0237-.3905 1.4142 0"/></svg>

<svg width="32" height="32" viewBox="0 0 32 32" fill="none" xmlns="http://www.w3.org/2000/svg">
<path d="M10 2C7.79086 2 6 3.79086 6 6V26C6 28.2091 7.79086 30 10 30H22C23.7926 30 25.3098 28.8208 25.8182 27.1958C25.0914 27.5512 24.2507 27.5952 23.4958 27.3277C23.1294 27.7401 22.5951 28 22 28H10C8.89543 28 8 27.1046 8 26V6C8 4.89543 8.89543 4 10 4H22C23.1046 4 24 4.89543 24 6V19.7638C24.0412 19.8008 24.0817 19.8391 24.1213 19.8787L24.5 20.2574L26 18.7574V6C26 3.79086 24.2091 2 22 2H10Z" fill="black"/>
<path d="M24.5 23.0858L22.7071 21.2929C22.3166 20.9024 21.6834 20.9024 21.2929 21.2929C20.9024 21.6834 20.9024 22.3166 21.2929 22.7071L23.7929 25.2071C23.8562 25.2705 23.926 25.3235 24 25.3663C24.3824 25.5874 24.8799 25.5343 25.2071 25.2071L29.7071 20.7071C30.0976 20.3166 30.0976 19.6834 29.7071 19.2929C29.3166 18.9024 28.6834 18.9024 28.2929 19.2929L24.5 23.0858Z" fill="black"/>
<path d="M12 8C11.4477 8 11 8.44772 11 9C11 9.55228 11.4477 10 12 10H20C20.5523 10 21 9.55228 21 9C21 8.44772 20.5523 8 20 8H12Z" fill="black"/>
<path d="M11 13C11 12.4477 11.4477 12 12 12H20C20.5523 12 21 12.4477 21 13C21 13.5523 20.5523 14 20 14H12C11.4477 14 11 13.5523 11 13Z" fill="black"/>
<path d="M12 18C12.5523 18 13 17.5523 13 17C13 16.4477 12.5523 16 12 16C11.4477 16 11 16.4477 11 17C11 17.5523 11.4477 18 12 18Z" fill="black"/>
<path d="M16 17C16 17.5523 15.5523 18 15 18C14.4477 18 14 17.5523 14 17C14 16.4477 14.4477 16 15 16C15.5523 16 16 16.4477 16 17Z" fill="black"/>
</svg>
